X:1
T: Green Sleeves
C:
R:Jig
Q:180
K:Am
M:6/8
L:1/16
AB|c4c2 c2d2e2|d2B2G2 G2A2B2|c2B2A2 A2B2c2|B2G2E2 E4AB|c4c2 c2d2e2|d2B2G2 G2A2B2|c2B2A2 G2E2^G2|A6 A4AB|
c4c2 c2d2e2|d2B2G2 G2A2B2|c2B2A2 A2B2c2|B2G2E2 E4AB|c4c2 c2d2e2|d2B2G2 G2A2B2|c2B2A2 G2E2^G2|A6 A4e^f|
g2a2g2 g2f2e2|d2B2G2 G2B2d2|a2b2a2 a2b2a2|g2e2e2 e4e^f|g2a2g2 g2f2e2|d2B2G2 G2A2B2|c2B2A2 G2E2^G2|A6 A4e^f|
g2a2g2 g2f2e2|d2B2G2 G2B2d2|a2b2a2 a2b2a2|g2e2e2 e4e^f|g2a2g2 g2f2e2|d2B2G2 G2A2B2|c2B2A2 G2E2^G2|A6 A4||
